svg/SJJB-OpenStreetMapIcons/accommodation/camping.svg

<?xml version="1.0" encoding="UTF-8" standalone="no"?>
<!-- Created with Inkscape (http://www.inkscape.org/) -->
<svg
   xmlns:dc="http://purl.org/dc/elements/1.1/"
   xmlns:cc="http://creativecommons.org/ns#"
   xmlns:rdf="http://www.w3.org/1999/02/22-rdf-syntax-ns#"
   xmlns:svg="http://www.w3.org/2000/svg"
   xmlns="http://www.w3.org/2000/svg"
   xmlns:sodipodi="http://sodipodi.sourceforge.net/DTD/sodipodi-0.dtd"
   xmlns:inkscape="http://www.inkscape.org/namespaces/inkscape"
   version="1.0"
   width="580"
   height="580"
   id="svg2"
   sodipodi:version="0.32"
   inkscape:version="0.46"
   sodipodi:docname="amenity_camping.svg"
   sodipodi:docbase="s:\Data\FacilityIcons"
   inkscape:output_extension="org.inkscape.output.svg.inkscape">
  <metadata
     id="metadata2975">
    <rdf:RDF>
      <cc:Work
         rdf:about="">
        <dc:format>image/svg+xml</dc:format>
        <dc:type
           rdf:resource="http://purl.org/dc/dcmitype/StillImage" />
			  <cc:license
           rdf:resource="http://web.resource.org/cc/PublicDomain" />
        <dc:language>en</dc:language>
      </cc:Work>
    </rdf:RDF>
  </metadata>
  <sodipodi:namedview
     inkscape:window-height="675"
     inkscape:window-width="853"
     inkscape:pageshadow="2"
     inkscape:pageopacity="0.0"
     guidetolerance="10.0"
     gridtolerance="10.0"
     objecttolerance="10.0"
     borderopacity="1.0"
     bordercolor="#666666"
     pagecolor="#ffffff"
     id="base"
     inkscape:zoom="0.65172414"
     inkscape:cx="209.39659"
     inkscape:cy="290"
     inkscape:window-x="91"
     inkscape:window-y="88"
     inkscape:current-layer="svg2"
     showgrid="false" />
  <defs
     id="defs4">
    <inkscape:perspective
       sodipodi:type="inkscape:persp3d"
       inkscape:vp_x="0 : 290 : 1"
       inkscape:vp_y="0 : 1000 : 0"
       inkscape:vp_z="580 : 290 : 1"
       inkscape:persp3d-origin="290 : 193.33333 : 1"
       id="perspective2441" />
  </defs>
  <g
     id="g1327">
    <path
       d="M 66.275,1.768 C 24.94,1.768 1.704,23.139 1.704,66.804 L 1.704,516.927 C 1.704,557.771 22.599,579.156 63.896,579.156 L 515.92,579.156 C 557.227,579.156 578.149,558.841 578.149,516.927 L 578.149,66.804 C 578.149,24.203 557.227,1.768 514.628,1.768 C 514.624,1.768 66.133,1.625 66.275,1.768 z "
       style="fill:#111;stroke:#eee;stroke-width:3.40799999"
       id="path1329" />
  </g>
  <path
     style="fill:none;fill-rule:evenodd;stroke:#ffffff;stroke-width:26.27972603;stroke-linecap:butt;stroke-linejoin:miter;stroke-miterlimit:4;stroke-dasharray:none;stroke-opacity:1"
     d="M 288.27197,138.47099 C 286.76224,146.8004 92.8253,507.19334 92.8253,507.19334 L 483.17348,506.5467 L 288.27197,138.47099 z"
     id="path2443"
     sodipodi:nodetypes="cccc" />
  <path
     sodipodi:nodetypes="csccc"
     id="path2383"
     d="M 288.27197,162.58083 C 287.53256,166.66023 275.50214,187.26222 301.10443,277.13002 C 327.77756,370.75661 399.37636,507.19334 399.37636,507.19334 L 483.17348,506.5467 L 288.27197,162.58083 z"
     style="fill:#ffffff;fill-opacity:1;fill-rule:evenodd;stroke:#ffffff;stroke-width:26.27972603;stroke-linecap:butt;stroke-linejoin:miter;stroke-miterlimit:4;stroke-dasharray:none;stroke-opacity:1" />
  <path
     style="fill:#ffffff;fill-opacity:1;fill-rule:evenodd;stroke:#ffffff;stroke-width:26.27972603;stroke-linecap:butt;stroke-linejoin:miter;stroke-miterlimit:4;stroke-dasharray:none;stroke-opacity:1"
     d="M 291.6525,162.58083 C 292.3919,166.66023 304.42233,187.26222 278.82004,277.13002 C 252.14691,370.75661 180.54811,507.19334 180.54811,507.19334 L 96.75099,506.5467 L 291.6525,162.58083 z"
     id="path3155"
     sodipodi:nodetypes="csccc" />
  <path
     sodipodi:nodetypes="ccc"
     id="path3157"
     d="M 249.69622,63.73048 L 483.17348,506.5467 L 249.69622,63.73048 z"
     style="fill:none;fill-rule:evenodd;stroke:#ffffff;stroke-width:26.27972603;stroke-linecap:butt;stroke-linejoin:miter;stroke-miterlimit:4;stroke-dasharray:none;stroke-opacity:1" />
  <path
     style="fill:none;fill-rule:evenodd;stroke:#ffffff;stroke-width:26.27972603;stroke-linecap:butt;stroke-linejoin:miter;stroke-miterlimit:4;stroke-dasharray:none;stroke-opacity:1"
     d="M 328.51443,66.14146 L 95.393229,506.5467 L 328.51443,66.14146 z"
     id="path3161"
     sodipodi:nodetypes="ccc" />
</svg>

<svg xmlns="http://www.w3.org/2000/svg" viewBox="0 0 580 580"><path d="m66.28 1.768c-41.34 0-64.57 21.371-64.57 65.04v450.12c0 40.844 20.895 62.23 62.19 62.23h452.02c41.31 0 62.23-20.315 62.23-62.23v-450.12c0-42.601-20.922-65.04-63.52-65.04-.004 0-448.5-.143-448.35 0z" fill="#111" stroke="#eee" stroke-width="3.408"/><g fill-rule="evenodd" stroke="#fff" stroke-width="26.28"><path d="m288.27 138.47c-1.51 8.329-195.45 368.72-195.45 368.72l390.35-.647-194.9-368.08z" fill="none"/><g fill="#fff"><path d="m288.27 162.58c-.739 4.079-12.77 24.681 12.832 114.55 26.673 93.63 98.27 230.06 98.27 230.06l83.8-.647-194.9-343.97z"/><path d="m291.65 162.58c.739 4.079 12.77 24.681-12.832 114.55-26.673 93.63-98.27 230.06-98.27 230.06l-83.8-.647 194.9-343.97z"/></g><g fill="none"><path d="m249.7 63.73l233.48 442.82-233.48-442.82z"/><path d="m328.51 66.14l-233.12 440.41 233.12-440.41z"/></g></g></svg>
